X: 1
T: Trip to Dingle
C: Alan Kelly
R: march
S: Fiddle Hell Online 2021-05-31 workshop handout
Z: 2021 John Chambers <jc:trillian.mit.edu>
M: 2/4
L: 1/8
K: D
|:\
"D"D>E FA | AB "Bm"F2- | Fd BA | BA F/E/D |\
"G"B,2 A,B, | "D"DE F"A"A- | AB AF |[1 EGFE :|[2 D2 dc ||
[|\
"G"B2AB | "D"de f2 | "A"zE FE | ED B,A, |\
"G"B2 AB | "D"de f"Bm"a- | ab f/e/d | e3 A ||
||\
"G"B2AB | "D"de f"A"E- | EE FE | ED B,A, |\
"G"B,2 A,B, | "D"DE FA- | "A"AB AF | EG FE |]
